flaticon/emoticons/kiss-4.svg

<svg xmlns="http://www.w3.org/2000/svg" width="32" height="32" viewBox="0 0 24 24">
    <path d="M 15.457031 7.730469 C 13.886719 7.730469 12.609375 9.28125 12.609375 11.1875 C 12.609375 13.09375 13.886719 14.644531 15.457031 14.644531 C 17.027344 14.644531 18.304688 13.09375 18.304688 11.1875 C 18.304688 9.28125 17.027344 7.730469 15.457031 7.730469 Z M 15.457031 13.832031 C 14.335938 13.832031 13.421875 12.644531 13.421875 11.1875 C 13.421875 9.730469 14.335938 8.542969 15.457031 8.542969 C 16.578125 8.542969 17.492188 9.730469 17.492188 11.1875 C 17.492188 12.644531 16.578125 13.832031 15.457031 13.832031 Z M 15.457031 13.832031"/>
    <path d="M 16.679688 11.1875 C 16.679688 10.175781 16.132812 9.355469 15.457031 9.355469 C 14.785156 9.355469 14.238281 10.175781 14.238281 11.1875 C 14.238281 12.199219 14.785156 13.015625 15.457031 13.015625 C 16.132812 13.015625 16.679688 12.199219 16.679688 11.1875 Z M 16.679688 11.1875"/>
    <path d="M 12 0 C 6.054688 0 1.21875 4.835938 1.21875 10.78125 L 1.21875 15.246094 C 1.21875 15.25 1.21875 15.25 1.21875 15.25 C 1.21875 15.25 1.21875 15.253906 1.21875 15.253906 L 1.21875 20.746094 C 1.21875 21.867188 2.132812 22.78125 3.253906 22.78125 L 5.917969 22.78125 C 5.9375 22.789062 5.957031 22.796875 5.976562 22.804688 C 7.402344 23.476562 9.121094 23.878906 11.078125 23.976562 C 11.121094 23.976562 11.164062 23.980469 11.210938 23.980469 C 11.46875 23.992188 11.730469 24 12 24 C 12.269531 24 12.53125 23.992188 12.792969 23.980469 C 12.835938 23.980469 12.878906 23.976562 12.921875 23.976562 C 14.878906 23.878906 16.597656 23.476562 18.023438 22.804688 C 18.042969 22.796875 18.0625 22.789062 18.082031 22.777344 L 20.746094 22.777344 C 21.867188 22.777344 22.78125 21.867188 22.78125 20.746094 L 22.78125 10.78125 C 22.78125 4.835938 17.945312 0 12 0 Z M 17.894531 21.964844 L 17.8125 22.007812 C 16.660156 22.566406 15.289062 22.929688 13.777344 23.089844 C 13.667969 23.101562 13.558594 23.113281 13.445312 23.125 C 13.285156 23.136719 13.125 23.148438 12.960938 23.15625 C 12.648438 23.175781 12.328125 23.1875 12 23.1875 C 11.671875 23.1875 11.351562 23.175781 11.039062 23.15625 C 10.875 23.148438 10.714844 23.136719 10.554688 23.121094 C 10.441406 23.113281 10.332031 23.101562 10.222656 23.089844 C 8.710938 22.929688 7.339844 22.566406 6.1875 22.007812 L 6.105469 21.964844 L 6.066406 21.964844 C 3.476562 20.65625 2.035156 18.34375 2.035156 15.253906 C 2.035156 15.253906 2.035156 15.25 2.035156 15.25 C 2.035156 15.25 2.035156 15.25 2.035156 15.246094 C 2.039062 10.019531 6.425781 5.550781 11.796875 5.289062 L 12.183594 5.289062 C 17.578125 5.550781 21.964844 10.023438 21.964844 15.253906 C 21.964844 18.34375 20.523438 20.65625 17.933594 21.964844 Z M 3.253906 21.964844 C 2.582031 21.964844 2.035156 21.417969 2.035156 20.746094 L 2.035156 19.027344 C 2.597656 20.195312 3.441406 21.1875 4.535156 21.964844 Z M 21.964844 20.746094 C 21.964844 21.417969 21.417969 21.964844 20.746094 21.964844 L 19.464844 21.964844 C 20.558594 21.1875 21.402344 20.195312 21.964844 19.027344 Z M 12.203125 4.472656 L 11.777344 4.476562 C 7.390625 4.691406 3.625 7.492188 2.035156 11.28125 L 2.035156 10.78125 C 2.035156 5.285156 6.503906 0.8125 12 0.8125 C 17.496094 0.8125 21.964844 5.285156 21.964844 10.78125 L 21.964844 11.265625 C 20.371094 7.484375 16.601562 4.6875 12.203125 4.472656 Z M 12.203125 4.472656"/>
    <path d="M6.804688 8.949219C6.582031 8.945312 6.386719 9.105469 6.371094 9.332031 6.359375 9.554688 6.527344 9.746094 6.753906 9.761719 7.558594 9.8125 8.300781 10.414062 8.621094 11.160156 7.621094 10.671875 6.375 10.796875 5.484375 11.578125 5.316406 11.726562 5.300781 11.984375 5.449219 12.152344 5.59375 12.320312 5.851562 12.339844 6.023438 12.191406 6.863281 11.449219 8.152344 11.53125 8.890625 12.371094 8.972656 12.460938 9.082031 12.511719 9.199219 12.511719 9.242188 12.511719 9.285156 12.503906 9.328125 12.488281 9.484375 12.433594 9.59375 12.292969 9.601562 12.128906 9.703125 10.566406 8.367188 9.050781 6.804688 8.949219zM13.210938 16.5625C12.707031 16.5625 12.234375 16.785156 11.910156 17.175781 11.769531 17.347656 11.792969 17.605469 11.964844 17.746094 12.140625 17.890625 12.394531 17.867188 12.539062 17.691406 12.707031 17.492188 12.949219 17.375 13.210938 17.375 13.691406 17.375 14.082031 17.765625 14.082031 18.246094 14.082031 18.546875 13.929688 18.816406 13.695312 18.972656 13.667969 18.925781 13.644531 18.878906 13.609375 18.835938 13.507812 18.707031 13.386719 18.589844 13.25 18.496094 13.066406 18.367188 12.8125 18.410156 12.683594 18.59375 12.617188 18.683594 12.597656 18.796875 12.617188 18.898438 12.445312 18.789062 12.21875 18.8125 12.082031 18.972656 11.941406 19.148438 11.964844 19.402344 12.136719 19.546875 12.421875 19.78125 12.78125 19.914062 13.148438 19.925781 13.144531 19.945312 13.148438 19.964844 13.144531 19.980469 13.117188 20.210938 13 20.417969 12.816406 20.5625 12.632812 20.707031 12.40625 20.769531 12.171875 20.738281 11.941406 20.710938 11.738281 20.59375 11.59375 20.410156 11.46875 20.25 11.402344 20.054688 11.410156 19.851562 11.417969 19.625 11.238281 19.4375 11.015625 19.433594 10.78125 19.433594 10.601562 19.601562 10.597656 19.828125 10.585938 20.21875 10.710938 20.601562 10.953125 20.910156 11.230469 21.265625 11.628906 21.492188 12.074219 21.546875 12.144531 21.554688 12.214844 21.558594 12.285156 21.558594 12.65625 21.558594 13.019531 21.4375 13.316406 21.203125 13.671875 20.925781 13.898438 20.527344 13.953125 20.082031 13.96875 19.96875 13.96875 19.859375 13.960938 19.75 14.511719 19.472656 14.894531 18.90625 14.894531 18.246094 14.898438 17.316406 14.140625 16.5625 13.210938 16.5625zM13.210938 16.5625"/>
</svg>

<svg xmlns="http://www.w3.org/2000/svg" width="32" height="32" viewBox="0 0 24 24">
    <path d="M15.457 7.73c-1.57 0-2.848 1.551-2.848 3.457 0 1.907 1.278 3.458 2.848 3.458 1.57 0 2.848-1.551 2.848-3.457 0-1.907-1.278-3.458-2.848-3.458zm0 6.102c-1.121 0-2.035-1.187-2.035-2.645 0-1.457.914-2.644 2.035-2.644s2.035 1.187 2.035 2.645c0 1.457-.914 2.644-2.035 2.644zm0 0"/>
    <path d="M16.68 11.188c0-1.012-.547-1.833-1.223-1.833-.672 0-1.219.82-1.219 1.832s.547 1.829 1.219 1.829c.676 0 1.223-.817 1.223-1.829zm0 0"/>
    <path d="M12 0C6.055 0 1.219 4.836 1.219 10.781v9.965c0 1.121.914 2.035 2.035 2.035h2.664l.059.024c1.425.672 3.144 1.074 5.101 1.172.043 0 .086.003.133.003.258.012.52.02.789.02.27 0 .531-.008.793-.02l.129-.003c1.957-.098 3.676-.5 5.101-1.172.02-.008.04-.016.059-.028h2.664c1.121 0 2.035-.91 2.035-2.03V10.78C22.781 4.836 17.945 0 12 0zm5.895 21.965l-.082.043c-1.153.558-2.524.922-4.036 1.082l-.332.035c-.16.012-.32.023-.484.031a15.386 15.386 0 0 1-2.406-.035c-.114-.008-.223-.02-.332-.031-1.512-.16-2.883-.524-4.036-1.082l-.082-.043h-.039c-2.59-1.309-4.03-3.621-4.03-6.711v-.004-.004c.003-5.226 4.39-9.695 9.76-9.957h.388c5.394.262 9.78 4.734 9.78 9.965 0 3.09-1.44 5.402-4.03 6.71zm-14.641 0a1.22 1.22 0 0 1-1.219-1.219v-1.719a7.663 7.663 0 0 0 2.5 2.938zm18.71-1.219a1.22 1.22 0 0 1-1.218 1.219h-1.281a7.663 7.663 0 0 0 2.5-2.938zm-9.76-16.273l-.427.004c-4.386.214-8.152 3.015-9.742 6.804v-.5C2.035 5.285 6.504.812 12 .812c5.496 0 9.965 4.473 9.965 9.97v.484c-1.594-3.782-5.363-6.579-9.762-6.793zm0 0"/>
    <path d="M6.805 8.95a.418.418 0 0 0-.434.382.409.409 0 0 0 .383.43c.805.05 1.547.652 1.867 1.398a2.86 2.86 0 0 0-3.137.418.407.407 0 0 0 .54.613 2.033 2.033 0 0 1 2.867.18c.082.09.191.14.308.14a.375.375 0 0 0 .13-.023.403.403 0 0 0 .273-.36c.101-1.562-1.235-3.077-2.797-3.179zm0 0M13.21 16.563c-.503 0-.976.222-1.3.613a.407.407 0 0 0 .63.515.872.872 0 1 1 1.156 1.281c-.028-.046-.051-.093-.087-.136a1.65 1.65 0 0 0-.359-.34.407.407 0 0 0-.566.098c-.067.09-.086.203-.067.304a.409.409 0 0 0-.535.075.412.412 0 0 0 .055.574c.285.234.644.367 1.011.379-.003.02 0 .039-.003.054a.868.868 0 0 1-1.551.43.852.852 0 0 1-.184-.558.404.404 0 0 0-.394-.418c-.235 0-.414.168-.418.394-.012.39.113.774.355 1.082a1.673 1.673 0 0 0 1.332.649 1.66 1.66 0 0 0 1.031-.356 1.673 1.673 0 0 0 .645-1.453 1.681 1.681 0 0 0-.75-3.188zm0 0"/>
</svg>
